;FLAVOR:Marlin
;TIME:3068
;Filament used: 11.7102m
;Layer height: 0.2
;MINX:28.9
;MINY:53.9
;MINZ:0.26
;MAXX:193.1
;MAXY:168.1
;MAXZ:4.06
;TARGET_MACHINE.NAME:Unknown
;Generated with Cura_SteamEngine 5.6.0
M140 S60
M105
M190 S60
M104 S215
M105
M109 S215
M82 ;absolute extrusion mode
G28 ;Home
G1 Z15.0 F6000 ;Move the platform down 15mm
;Prime the extruder
G92 E0
G1 F200 E3
G92 E0
G92 E0
G92 E0
G1 F4800 E-2.5
;LAYER_COUNT:20
;LAYER:0
M107
G0 X32.692 Y55.136 Z0.26
;TYPE:SKIRT
G1 F4800 E0
G1 X31.214 Y56.281 E0.14551
G1 X30.96 Y56.551 E0.17436
G1 X29.846 Y58.18 E0.32796
G1 X29.306 Y59.472 E0.43694
G1 X28.9 Y61.23 E0.57736
G1 X28.9 Y160.493 E8.30288
G1 X29.198 Y162.384 E8.45187
G1 X29.255 Y162.561 E8.46634
G1 X30.136 Y164.308 E8.61862
G1 X31.281 Y165.786 E8.76413
G1 X31.551 Y166.04 E8.79298
G1 X33.18 Y167.154 E8.94657
G1 X34.472 Y167.694 E9.05556
G1 X36.23 Y168.1 E9.19598
G1 X185.493 Y168.1 E20.81293
G1 X187.384 Y167.802 E20.96192
G1 X187.561 Y167.745 E20.97639
G1 X189.308 Y166.864 E21.12867
G1 X190.786 Y165.719 E21.27418
G1 X191.04 Y165.449 E21.30303
G1 X192.154 Y163.82 E21.45662
G1 X192.694 Y162.528 E21.56561
G1 X193.1 Y160.77 E21.70603
G1 X193.1 Y61.507 E29.43154
G1 X192.802 Y59.616 E29.58053
G1 X192.745 Y59.439 E29.59501
G1 X191.864 Y57.692 E29.74728
G1 X190.719 Y56.214 E29.89279
G1 X190.449 Y55.96 E29.92164
G1 X188.82 Y54.846 E30.07524
G1 X187.528 Y54.306 E30.18422
G1 X185.77 Y53.9 E30.32465
G1 X36.507 Y53.9 E41.94159
G1 X34.616 Y54.198 E42.09058
G1 X34.439 Y54.255 E42.10506
G1 X32.692 Y55.136 E42.25733
G0 X33.013 Y55.646
G1 X31.582 Y56.755 E42.39824
G1 X31.455 Y56.89 E42.41266
G1 X30.377 Y58.467 E42.56133
G1 X29.88 Y59.656 E42.66163
G1 X29.5 Y61.3 E42.79296
G1 X29.5 Y160.444 E50.50921
G1 X29.791 Y162.291 E50.65473
G1 X30.646 Y163.987 E50.80255
G1 X31.755 Y165.418 E50.94345
G1 X31.89 Y165.545 E50.95788
G1 X33.467 Y166.623 E51.10655
G1 X34.656 Y167.12 E51.20685
G1 X36.3 Y167.5 E51.33817
G1 X185.444 Y167.5 E62.94586
G1 X187.291 Y167.209 E63.09138
G1 X188.987 Y166.354 E63.2392
G1 X190.418 Y165.245 E63.38011
G1 X190.545 Y165.11 E63.39453
G1 X191.623 Y163.533 E63.5432
G1 X192.12 Y162.344 E63.6435
G1 X192.5 Y160.7 E63.77482
G1 X192.5 Y61.556 E71.49107
G1 X192.209 Y59.709 E71.6366
G1 X191.354 Y58.013 E71.78442
G1 X190.245 Y56.582 E71.92532
G1 X190.11 Y56.455 E71.93975
G1 X188.533 Y55.377 E72.08842
G1 X187.344 Y54.88 E72.18872
G1 X185.7 Y54.5 E72.32004
G1 X36.556 Y54.5 E83.92773
G1 X34.709 Y54.791 E84.07325
G1 X33.013 Y55.646 E84.22107
G0 X33.334 Y56.156
G1 X34.895 Y55.37 E84.35709
G1 X36.606 Y55.1 E84.49191
G1 X185.63 Y55.1 E96.09025
G1 X187.158 Y55.453 E96.21231
G1 X188.248 Y55.909 E96.30427
G1 X189.771 Y56.95 E96.44784
G1 X190.844 Y58.334 E96.58414
G1 X191.63 Y59.895 E96.72016
G1 X191.9 Y61.606 E96.85497
G1 X191.9 Y160.63 E104.56188
G1 X191.547 Y162.158 E104.68394
G1 X191.091 Y163.248 E104.7759
G1 X190.05 Y164.771 E104.91947
G1 X188.666 Y165.844 E105.05577
G1 X187.105 Y166.63 E105.19179
G1 X185.394 Y166.9 E105.3266
G1 X36.37 Y166.9 E116.92495
G1 X34.842 Y166.547 E117.04701
G1 X33.752 Y166.091 E117.13896
G1 X32.229 Y165.05 E117.28254
G1 X31.156 Y163.666 E117.41884
G1 X30.37 Y162.105 E117.55486
G1 X30.1 Y160.394 E117.68967
G1 X30.1 Y61.37 E125.39658
G1 X30.453 Y59.842 E125.51864
G1 X30.909 Y58.752 E125.61059
G1 X31.95 Y57.229 E125.75417
G1 X33.334 Y56.156 E125.89047
G0 X33.653 Y56.668
G1 X35.08 Y55.949 E126.01483
G1 X36.656 Y55.7 E126.13901
G1 X185.56 Y55.7 E137.72802
G1 X186.977 Y56.027 E137.8412
G1 X187.959 Y56.438 E137.92405
G1 X189.356 Y57.393 E138.05575
G1 X190.332 Y58.653 E138.1798
G1 X191.051 Y60.08 E138.30416
G1 X191.3 Y61.656 E138.42834
G1 X191.3 Y160.56 E146.12591
G1 X190.973 Y161.977 E146.23909
G1 X190.562 Y162.959 E146.32194
G1 X189.607 Y164.356 E146.45365
G1 X188.347 Y165.332 E146.57769
G1 X186.92 Y166.051 E146.70205
G1 X185.344 Y166.3 E146.82623
G1 X36.44 Y166.3 E158.41524
G1 X35.023 Y165.973 E158.52842
G1 X34.041 Y165.562 E158.61127
G1 X32.644 Y164.607 E158.74298
G1 X31.668 Y163.347 E158.86702
G1 X30.949 Y161.92 E158.99138
G1 X30.7 Y160.344 E159.11556
G1 X30.7 Y61.44 E166.81313
G1 X31.027 Y60.023 E166.92631
G1 X31.438 Y59.041 E167.00917
G1 X32.393 Y57.644 E167.14087
G1 X33.653 Y56.668 E167.26491
G0 X33.974 Y57.178
G1 X35.266 Y56.527 E167.37751
G1 X36.705 Y56.3 E167.49089
G1 X185.49 Y56.3 E179.07064
G1 X186.796 Y56.601 E179.17495
G1 X187.67 Y56.967 E179.24869
G1 X188.939 Y57.835 E179.36835
G1 X189.822 Y58.974 E179.48052
G1 X190.473 Y60.266 E179.59311
G1 X190.7 Y61.705 E179.70649
G1 X190.7 Y160.49 E187.3948
G1 X190.399 Y161.796 E187.49911
G1 X190.033 Y162.67 E187.57286
G1 X189.165 Y163.939 E187.69252
G1 X188.026 Y164.822 E187.80468
G1 X186.734 Y165.473 E187.91728
G1 X185.295 Y165.7 E188.03066
G1 X36.51 Y165.7 E199.61041
G1 X35.204 Y165.399 E199.71472
G1 X34.33 Y165.033 E199.78846
G1 X33.061 Y164.165 E199.90812
G1 X32.178 Y163.026 E200.02029
G1 X31.527 Y161.734 E200.13288
G1 X31.3 Y160.295 E200.24626
G1 X31.3 Y61.51 E207.93457
G1 X31.601 Y60.204 E208.03888
G1 X31.967 Y59.33 E208.11263
G1 X32.835 Y58.061 E208.23229
G1 X33.974 Y57.178 E208.34445
G0 X34.296 Y57.688
G1 X35.452 Y57.105 E208.44522
G1 X36.754 Y56.9 E208.5478
G1 X185.42 Y56.9 E220.11828
G1 X186.615 Y57.175 E220.21372
G1 X187.381 Y57.496 E220.27836
G1 X188.522 Y58.277 E220.38597
G1 X189.312 Y59.296 E220.48632
G1 X189.895 Y60.452 E220.58709
G1 X190.1 Y61.754 E220.68967
G1 X190.1 Y160.42 E228.36872
G1 X189.825 Y161.615 E228.46415
G1 X189.504 Y162.381 E228.52879
G1 X188.723 Y163.522 E228.6364
G1 X187.704 Y164.312 E228.73675
G1 X186.548 Y164.895 E228.83752
G1 X185.246 Y165.1 E228.9401
G1 X36.58 Y165.1 E240.51058
G1 X35.385 Y164.825 E240.60602
G1 X34.619 Y164.504 E240.67066
G1 X33.478 Y163.723 E240.77827
G1 X32.688 Y162.704 E240.87862
G1 X32.105 Y161.548 E240.97939
G1 X31.9 Y160.246 E241.08197
G1 X31.9 Y61.58 E248.76102
G1 X32.175 Y60.385 E248.85645
G1 X32.496 Y59.619 E248.92109
G1 X33.277 Y58.478 E249.02871
G1 X34.296 Y57.688 E249.12905
G0 X34.615 Y58.2
G1 X35.638 Y57.684 E249.21823
G1 X36.804 Y57.5 E249.3101
G1 X185.35 Y57.5 E260.87124
G1 X186.431 Y57.749 E260.95758
G1 X187.094 Y58.026 E261.0135
G1 X188.107 Y58.72 E261.10907
G1 X188.8 Y59.615 E261.19717
G1 X189.316 Y60.638 E261.28634
G1 X189.5 Y61.804 E261.37821
G1 X189.5 Y160.35 E269.04792
G1 X189.251 Y161.431 E269.13426
G1 X188.974 Y162.094 E269.19018
G1 X188.28 Y163.107 E269.28575
G1 X187.385 Y163.8 E269.37385
G1 X186.362 Y164.316 E269.46302
G1 X185.196 Y164.5 E269.55489
G1 X36.65 Y164.5 E281.11603
G1 X35.569 Y164.251 E281.20237
G1 X34.906 Y163.974 E281.25829
G1 X33.893 Y163.28 E281.35386
G1 X33.2 Y162.385 E281.44196
G1 X32.684 Y161.362 E281.53113
G1 X32.5 Y160.196 E281.623
G1 X32.5 Y61.65 E289.29271
G1 X32.749 Y60.569 E289.37905
G1 X33.026 Y59.906 E289.43497
G1 X33.72 Y58.893 E289.53054
G1 X34.615 Y58.2 E289.61864
G0 X34.934 Y58.711
G1 X35.824 Y58.262 E289.69622
G1 X36.853 Y58.1 E289.77729
G1 X185.28 Y58.1 E301.32917
G1 X186.247 Y58.323 E301.40641
G1 X186.807 Y58.557 E301.45365
G1 X187.692 Y59.163 E301.53712
G1 X188.289 Y59.934 E301.61302
G1 X188.738 Y60.824 E301.6906
G1 X188.9 Y61.853 E301.77167
G1 X188.9 Y160.28 E309.43212
G1 X188.677 Y161.247 E309.50935
G1 X188.443 Y161.807 E309.55659
G1 X187.837 Y162.692 E309.64007
G1 X187.066 Y163.289 E309.71596
G1 X186.176 Y163.738 E309.79354
G1 X185.147 Y163.9 E309.87462
G1 X36.72 Y163.9 E321.4265
G1 X35.753 Y163.677 E321.50374
G1 X35.193 Y163.443 E321.55097
G1 X34.308 Y162.837 E321.63445
G1 X33.711 Y162.066 E321.71034
G1 X33.262 Y161.176 E321.78793
G1 X33.1 Y160.147 E321.869
G1 X33.1 Y61.72 E329.52944
G1 X33.323 Y60.753 E329.60668
G1 X33.557 Y60.193 E329.65392
G1 X34.163 Y59.308 E329.7374
G1 X34.934 Y58.711 E329.81329
G0 X35.255 Y59.221
G1 X34.605 Y59.725 E329.8773
G1 X34.052 Y60.532 E329.95344
G1 X33.908 Y60.888 E329.98333
G1 X33.7 Y61.79 E330.05537
G1 X33.7 Y160.097 E337.70648
G1 X33.841 Y160.99 E337.77684
G1 X34.221 Y161.745 E337.84263
G1 X34.725 Y162.395 E337.90664
G1 X35.532 Y162.948 E337.98278
G1 X35.888 Y163.092 E338.01267
G1 X36.79 Y163.3 E338.08471
G1 X185.097 Y163.3 E349.62725
G1 X185.99 Y163.159 E349.69762
G1 X186.745 Y162.779 E349.7634
G1 X187.395 Y162.275 E349.82742
G1 X187.948 Y161.468 E349.90355
G1 X188.092 Y161.112 E349.93344
G1 X188.3 Y160.21 E350.00549
G1 X188.3 Y61.903 E357.65659
G1 X188.159 Y61.01 E357.72696
G1 X187.779 Y60.255 E357.79274
G1 X187.275 Y59.605 E357.85675
G1 X186.468 Y59.052 E357.93289
G1 X186.112 Y58.908 E357.96278
G1 X185.21 Y58.7 E358.03483
G1 X36.903 Y58.7 E369.57737
G1 X36.01 Y58.841 E369.64773
G1 X35.255 Y59.221 E369.71351
G0 X35.577 Y59.731
G1 X35.047 Y60.142 E369.76571
G1 X34.583 Y60.819 E369.82959
G1 X34.493 Y61.023 E369.84694
G1 X34.3 Y61.86 E369.9138
G1 X34.3 Y160.048 E377.55564
G1 X34.419 Y160.804 E377.61521
G1 X34.731 Y161.423 E377.66915
G1 X35.142 Y161.953 E377.72135
G1 X35.819 Y162.417 E377.78523
G1 X36.023 Y162.507 E377.80258
G1 X36.86 Y162.7 E377.86944
G1 X185.048 Y162.7 E389.40272
G1 X185.804 Y162.581 E389.46228
G1 X186.423 Y162.269 E389.51623
G1 X186.953 Y161.858 E389.56843
G1 X187.417 Y161.181 E389.63231
G1 X187.507 Y160.977 E389.64966
G1 X187.7 Y160.14 E389.71651
G1 X187.7 Y61.952 E397.35836
G1 X187.581 Y61.196 E397.41792
G1 X187.269 Y60.577 E397.47187
G1 X186.858 Y60.047 E397.52407
G1 X186.181 Y59.583 E397.58795
G1 X185.977 Y59.493 E397.6053
G1 X185.14 Y59.3 E397.67215
G1 X36.952 Y59.3 E409.20544
G1 X36.196 Y59.419 E409.265
G1 X35.577 Y59.731 E409.31895
G0 X35.847 Y60.267
G1 X35.489 Y60.558 E409.35485
G1 X35.078 Y61.158 E409.41146
G1 X34.9 Y61.93 E409.47312
G1 X34.9 Y160 E417.10578
G1 X34.997 Y160.618 E417.15447
G1 X35.267 Y161.153 E417.20111
G1 X35.558 Y161.511 E417.23701
G1 X36.158 Y161.922 E417.29362
G1 X36.93 Y162.1 E417.35528
G1 X185 Y162.1 E428.87937
G1 X185.618 Y162.003 E428.92806
G1 X186.153 Y161.733 E428.9747
G1 X186.511 Y161.442 E429.01061
G1 X186.922 Y160.842 E429.06721
G1 X187.1 Y160.07 E429.12887
G1 X187.1 Y62 E436.76153
G1 X187.003 Y61.382 E436.81022
G1 X186.733 Y60.847 E436.85686
G1 X186.442 Y60.489 E436.89277
G1 X185.842 Y60.078 E436.94937
G1 X185.07 Y59.9 E437.01103
G1 X37 Y59.9 E448.53513
G1 X36.382 Y59.997 E448.58381
G1 X35.847 Y60.267 E448.63045
G0 X36.117 Y60.803
G1 X36.569 Y60.575 E448.66985
G1 X37 Y60.5 E448.7039
G1 X185 Y60.5 E460.22255
G1 X185.598 Y60.638 E460.27032
G1 X185.993 Y60.887 E460.30666
G1 X186.197 Y61.117 E460.33059
G1 X186.425 Y61.569 E460.36999
G1 X186.5 Y62 E460.40403
G1 X186.5 Y160 E468.03125
G1 X186.362 Y160.598 E468.07901
G1 X186.113 Y160.993 E468.11535
G1 X185.883 Y161.197 E468.13928
G1 X185.431 Y161.425 E468.17868
G1 X185 Y161.5 E468.21273
G1 X37 Y161.5 E479.73138
G1 X36.402 Y161.362 E479.77915
G1 X36.007 Y161.113 E479.81549
G1 X35.803 Y160.883 E479.83941
G1 X35.575 Y160.431 E479.87881
G1 X35.5 Y160 E479.91286
G1 X35.5 Y62 E487.54008
G1 X35.638 Y61.402 E487.58784
G1 X35.887 Y61.007 E487.62418
G1 X36.117 Y60.803 E487.64811
G1 F4800 E485.14811
G0 X36.847 Y61.742
G1 F4800 E487.64811
G1 X37 Y61.7 E487.66046
G1 X185 Y61.7 E499.17911
G1 X185.149 Y61.739 E499.19109
G1 X185.258 Y61.847 E499.20304
G1 X185.3 Y62 E499.21539
G1 X185.3 Y160 E506.8426
G1 X185.261 Y160.149 E506.85459
G1 X185.153 Y160.258 E506.86653
G1 X185 Y160.3 E506.87888
G1 X37 Y160.3 E518.39753
G1 X36.851 Y160.261 E518.40951
G1 X36.742 Y160.153 E518.42146
G1 X36.7 Y160 E518.43381
G1 X36.7 Y62 E526.06102
G1 X36.739 Y61.851 E526.07301
G1 X36.847 Y61.742 E526.08495
G0 X36.421 Y61.32
G1 X36.688 Y61.163 E526.10906
G1 X37 Y61.1 E526.13383
G1 X185 Y61.1 E537.65248
G1 X185.301 Y61.159 E537.67635
G1 X185.571 Y61.313 E537.70054
G1 X185.68 Y61.421 E537.71248
G1 X185.837 Y61.688 E537.73659
G1 X185.9 Y62 E537.76136
G1 X185.9 Y160 E545.38858
G1 X185.841 Y160.301 E545.41245
G1 X185.687 Y160.571 E545.43664
G1 X185.579 Y160.68 E545.44858
G1 X185.312 Y160.837 E545.47269
G1 X185 Y160.9 E545.49746
G1 X37 Y160.9 E557.01611
G1 X36.699 Y160.841 E557.03999
G1 X36.429 Y160.687 E557.06418
G1 X36.32 Y160.579 E557.07612
G1 X36.163 Y160.312 E557.10023
G1 X36.1 Y160 E557.125
G1 X36.1 Y62 E564.75221
G1 X36.159 Y61.699 E564.77608
G1 X36.313 Y61.429 E564.80028
G1 X36.421 Y61.32 E564.81222
G1 F4800 E562.31222
;MESH:Morsomat_Deckel_Mesh.stl
G0 X37.424 Y62.424
G0 X38.4 Y65.581
G0 X39.709 Y67.134
G0 X39.853 Y66.493
;TYPE:WALL-OUTER
G1 F4800 E564.81222
G1 X39.425 Y66.387 E564.84104
G1 X39.087 Y66.189 E564.86665
G1 X38.75 Y65.828 E564.89894
G1 X38.599 Y65.542 E564.92008
G1 X38.508 Y65.171 E564.94506
G1 X38.535 Y64.678 E564.97734
G1 X38.745 Y64.181 E565.01261
G1 X39.147 Y63.763 E565.05052
G1 X39.415 Y63.616 E565.07051
G1 X39.736 Y63.52 E565.09241
G1 X40.147 Y63.506 E565.1193
G1 X40.51 Y63.588 E565.14363
G1 X40.85 Y63.763 E565.16863
G1 X41.211 Y64.115 E565.20159
G1 X41.396 Y64.446 E565.22638
G1 X41.497 Y64.893 E565.25634
G1 X41.458 Y65.367 E565.28743
G1 X41.29 Y65.771 E565.31604
G1 X40.873 Y66.224 E565.35629
G1 X40.561 Y66.395 E565.37955
G1 X40.233 Y66.483 E565.40175
G1 X39.853 Y66.493 E565.4266
G0 X39.659 Y66.445
G0 X39.514 Y67.09
G0 X37.9 Y157.192
G0 X38.02 Y157.716
G0 X38.747 Y158.697
G0 X39.709 Y159.134
G0 X39.853 Y158.494
G1 X39.49 Y158.412 E565.45093
G1 X39.087 Y158.189 E565.48104
G1 X38.75 Y157.828 E565.51333
G1 X38.599 Y157.542 E565.53447
G1 X38.508 Y157.171 E565.55945
G1 X38.535 Y156.678 E565.59172
G1 X38.745 Y156.181 E565.627
G1 X39.147 Y155.763 E565.66491
G1 X39.468 Y155.595 E565.6886
G1 X39.767 Y155.517 E565.7088
G1 X40.147 Y155.507 E565.73365
G1 X40.547 Y155.6 E565.7605
G1 X40.87 Y155.775 E565.78452
G1 X41.224 Y156.129 E565.81725
G1 X41.385 Y156.413 E565.83859
G1 X41.49 Y156.811 E565.8655
G1 X41.465 Y157.323 E565.89901
G1 X41.255 Y157.819 E565.93422
G1 X40.853 Y158.237 E565.97214
G1 X40.585 Y158.384 E565.99212
G1 X40.264 Y158.48 E566.01403
G1 X39.853 Y158.494 E566.04091
G0 X39.658 Y158.45
G0 X39.514 Y159.09
G0 X181.709 Y159.134
G0 X181.853 Y158.494
G1 X181.49 Y158.412 E566.06524
G1 X181.087 Y158.189 E566.09535
G1 X180.75 Y157.828 E566.12764
G1 X180.58 Y157.487 E566.15255
G1 X180.505 Y157.109 E566.17774
G1 X180.542 Y156.633 E566.20895
G1 X180.71 Y156.229 E566.23756
G1 X181.127 Y155.776 E566.27781
G1 X181.439 Y155.605 E566.30107
G1 X181.767 Y155.517 E566.32327
G1 X182.147 Y155.507 E566.34812
G1 X182.575 Y155.613 E566.37695
G1 X182.85 Y155.763 E566.39743
G1 X183.211 Y156.115 E566.43039
G1 X183.396 Y156.446 E566.45518
G1 X183.498 Y156.874 E566.48395
G1 X183.462 Y157.348 E566.51503
G1 X183.255 Y157.819 E566.54866
G1 X182.853 Y158.237 E566.58657
G1 X182.585 Y158.384 E566.60656
G1 X182.264 Y158.48 E566.62846
G1 X181.853 Y158.494 E566.65535
G0 X181.658 Y158.45
G0 X181.514 Y159.09
G0 X184.12 Y159.12
G0 X184.748 Y159.748
G1 X184.748 Y62.252 E573.02926
G1 X37.253 Y62.253 E582.67191
G1 X37.253 Y159.747 E589.04569
G1 X184.748 Y159.748 E598.68834
G0 X184.748 Y159.548
G0 X184.12 Y159.12
G0 X184.115 Y158.462
G0 X181.709 Y67.134
G0 X181.853 Y66.493
G1 X181.454 Y66.4 E598.71512
G1 X181.131 Y66.226 E598.73911
G1 X180.737 Y65.812 E598.77647
G1 X180.599 Y65.542 E598.7963
G1 X180.505 Y65.109 E598.82526
G1 X180.535 Y64.678 E598.85351
G1 X180.745 Y64.181 E598.88878
G1 X181.147 Y63.763 E598.9267
G1 X181.415 Y63.616 E598.94668
G1 X181.736 Y63.52 E598.96858
G1 X182.147 Y63.506 E598.99547
G1 X182.51 Y63.588 E599.0198
G1 X182.85 Y63.763 E599.0448
G1 X183.211 Y64.115 E599.07776
G1 X183.396 Y64.446 E599.10255
G1 X183.498 Y64.874 E599.13132
G1 X183.462 Y65.348 E599.16239
G1 X183.255 Y65.819 E599.19603
G1 X182.853 Y66.236 E599.23389
G1 X182.532 Y66.405 E599.25761
G1 X182.233 Y66.483 E599.27781
G1 X181.853 Y66.493 E599.30266
G0 X181.658 Y66.448
G0 X181.514 Y67.09
G0 X182.359 Y67.074
G0 X183.263 Y66.69
G0 X183.694 Y66.224
G0 X184.112 Y65.46
G0 X184.101 Y65.459
;TYPE:WALL-INNER
G1 F3375 X184.123 Y64.874 E599.36682
G1 F3406 X184.108 Y64.652 E599.39098
G0 F4800 X184.126 Y64.649
G0 X183.679 Y63.655
G0 X183.655 Y63.678
G1 F3488.6 X183.917 Y64.085 E599.44229
G1 F3415 X184.108 Y64.652 E599.50709
G1 F3406 X184.124 Y64.275 E599.54806
G1 F3483.9 X184.125 Y62.875 E599.69668
G1 X182.659 Y62.877 E599.85231
G1 F3433.1 X182.287 Y62.887 E599.8924
G1 F3437.7 X182.874 Y63.066 E599.95842
G1 F3488.6 X183.354 Y63.371 E600.01871
G1 X183.655 Y63.678 E600.0643
